X:1
T:Guy Clark
M:4/4
L:1/8
Q:1/4=88
K:A
E2 E2 A2 B2 | c4 B2 A2 | F2 A2 B2 A2 | E4 z4 |
E2 A2 A2 B2 | c2 d2 c2 B2 | A2 F2 E2 D2 | E4 z4 |
c2 c2 d2 c2 | B2 A2 F2 E2 | A2 B2 c2 B2 | A4 z4 |
E2 A2 B2 c2 | d4 c2 B2 | A2 F2 E2 F2 | A6 z2 |
